src/assets/selectIconsSpells/tuono_1.svg

<svg xmlns="http://www.w3.org/2000/svg" viewBox="0 0 512 512"><path d="M0 0h512v512H0z"/><path fill="#fff" d="M42.656 14.72C98.922 34.014 131.682 87.8 93.53 124.97c97.99 81.427 90.47 108.772 11.564 218.06C144.77 371 181.147 443.36 175.438 490.94H230.5c-32.26-22.573-43.393-49.275-48.563-74.72 29.67-3.367 57.124-.784 80.282 9.126 3.604 25.136 3.95 49.578 1.28 65.594h18.97c2.28-15.12 2.576-33.896.717-53.688 16.71 12.26 29.993 29.893 38.657 53.688h34.062c-30.534-30.354-48.743-63.438-64.562-97.063-5.033 1.243-9.97 2.304-14.813 3.22-3.77-15.606-8.914-30.76-15.56-44.19 14.544-19.12 21.514-36.89 20.874-54.53-.274-7.538-1.884-14.82-4.53-22.03 22.188-6.712 41.265-11.494 60.998-13.564 4.242 21.135 9.946 42.103 17.625 62.783l2.063 5.562 5.906.5c22.146 1.85 41.883 4.926 60.875 9.625 3.94 39.93-6.698 78.297-30.092 118.938 14.673 9.527 26.153 19.857 35.375 30.75h24.406c-40.497-24.248-32.673-75.68-8.22-102.375 21.968 11.687 36.194 23.99 47.844 41.5v-36.125c-26.635-3.933-42.61-21.916-51.22-47.657 16.828 5.22 33.48 11.873 51.157 20.283v-20.625c-19.077-8.64-37.455-15.373-56.31-20.532-4.706-27.01-3.845-59.278.03-91.875-28.84 7.984-57.094 11.11-83.906 10.157-4.173-24.797-6.5-49.993-7.75-75.5l-.656-13.156-12.22 4.97c-54.128 22.015-119.117 16.334-156.156-10.03C153.216 110.84 147.39 63.24 168 14.72H42.656zm285.531 167.03c1.283 20.255 3.302 40.46 6.47 60.53-52.267-5.78-97.91-27.234-130.063-58.186 37.293 11.99 82.246 11.504 123.594-2.344zm-121.53 50.094c13.693 7.486 27.002 14.627 38.374 24.47 11.47 16.32 17.658 29.84 18.126 42.748.49 13.534-4.895 27.892-20.437 46.875l-3.97 4.875 3 5.532c6.7 12.27 11.89 27.51 15.688 43.594-98.4 10.34-144.816-53.688-50.782-168.094zm152.78 29.812c12.68-.05 26.115 1.008 41.157 3.375 10.154 19.476 17.11 38.17 21.062 56.408-15.91-3.556-32.366-6.114-50.062-7.813-6.03-17.068-10.72-34.386-14.375-51.938.738-.01 1.474-.028 2.217-.03z"/></svg>

<?xml version="1.0" encoding="UTF-8" standalone="no"?>
<!DOCTYPE svg PUBLIC "-//W3C//DTD SVG 1.1//EN" "http://www.w3.org/Graphics/SVG/1.1/DTD/svg11.dtd">
<svg width="100%" height="100%" viewBox="0 0 512 512" version="1.1" xmlns="http://www.w3.org/2000/svg" xmlns:xlink="http://www.w3.org/1999/xlink" xml:space="preserve" xmlns:serif="http://www.serif.com/" style="fill-rule:evenodd;clip-rule:evenodd;stroke-linejoin:round;stroke-miterlimit:2;">
    <rect x="0" y="0" width="512" height="512" style="fill-rule:nonzero;"/>
    <path d="M42.656,14.72C98.922,34.014 131.682,87.8 93.53,124.97C191.52,206.397 184,233.742 105.094,343.03C144.77,371 181.147,443.36 175.438,490.94L230.5,490.94C198.24,468.367 187.107,441.665 181.937,416.22C211.607,412.853 239.061,415.436 262.219,425.346C265.823,450.482 266.169,474.924 263.499,490.94L282.469,490.94C284.749,475.82 285.045,457.044 283.186,437.252C299.896,449.512 313.179,467.145 321.843,490.94L355.905,490.94C325.371,460.586 307.162,427.502 291.343,393.877C286.31,395.12 281.373,396.181 276.53,397.097C272.76,381.491 267.616,366.337 260.97,352.907C275.514,333.787 282.484,316.017 281.844,298.377C281.57,290.839 279.96,283.557 277.314,276.347C299.502,269.635 318.579,264.853 338.312,262.783C342.554,283.918 348.258,304.886 355.937,325.566L358,331.128L363.906,331.628C386.052,333.478 405.789,336.554 424.781,341.253C428.721,381.183 418.083,419.55 394.689,460.191C409.362,469.718 420.842,480.048 430.064,490.941L454.47,490.941C413.973,466.693 421.797,415.261 446.25,388.566C468.218,400.253 482.444,412.556 494.094,430.066L494.094,393.941C467.459,390.008 451.484,372.025 442.874,346.284C459.702,351.504 476.354,358.157 494.031,366.567L494.031,345.942C474.954,337.302 456.576,330.569 437.721,325.41C433.015,298.4 433.876,266.132 437.751,233.535C408.911,241.519 380.657,244.645 353.845,243.692C349.672,218.895 347.345,193.699 346.095,168.192L345.439,155.036L333.219,160.006C279.091,182.021 214.102,176.34 177.063,149.976C153.216,110.84 147.39,63.24 168,14.72L42.656,14.72ZM328.187,181.75C329.47,202.005 331.489,222.21 334.657,242.28C282.39,236.5 236.747,215.046 204.594,184.094C241.887,196.084 286.84,195.598 328.188,181.75L328.187,181.75ZM206.657,231.844C220.35,239.33 233.659,246.471 245.031,256.314C256.501,272.634 262.689,286.154 263.157,299.062C263.647,312.596 258.262,326.954 242.72,345.937L238.75,350.812L241.75,356.344C248.45,368.614 253.64,383.854 257.438,399.938C159.038,410.278 112.622,346.25 206.656,231.844L206.657,231.844ZM359.437,261.656C372.117,261.606 385.552,262.664 400.594,265.031C410.748,284.507 417.704,303.201 421.656,321.439C405.746,317.883 389.29,315.325 371.594,313.626C365.564,296.558 360.874,279.24 357.219,261.688C357.957,261.678 358.693,261.66 359.436,261.658L359.437,261.656Z" style="fill:rgb(240,229,197);fill-rule:nonzero;"/>
</svg>
